X:1
T:The Yellow Rose Of Texas
T:The Yellow Rose of Texas
T:Don George
C:Don George
Z:All Rights Reserved
L:1/4
M:4/4
K:Bb
V:1 treble 
%%MIDI program 4
V:1
 z2 z"F7" F/E/ |:"Bb" D F F F | G F2"F7" E |"Bb" D F"Cm" B3/2"F7" c/ |"Bb" d2 z d |"F7" d F F d | %6
w: There's a|yel- low rose in|Tex- as that|I am going to|see No-|bod- y else could|
w: |Ri- o Grande is|flow- ing and|star- ry skies are|bright She|walks a- long the|
 d c2 B | A B c3/2 d/ | c2 z F |"Bb" D F F F | G F2"F7" E |"Bb" D F"Cm" B3/2"F7" c/ |"Bb" d2 z F | %13
w: miss her not|half as much as|me she|cried so when I|left her It|like to broke my|heart and|
w: riv- er in~the|qui- et sum- mer|night I|know that she re-|mem- bers when,we|part- ed long a-|go I|
"F7" F e e e | e d2 c |"Bb" B F"F7" d3/2 c/ |"Bb" B3 z || z2 z"F7" F/E/ |"Bb" D F F F | %19
w: if I ev- er|find her we|nev- er more will|part|she's the|sweet- est lit- tle|
w: prom- ised to re-|turn * and|not to leave her|so|||
 G F2"F7" E |"Bb" D F"Cm7" B3/2"F7" c/ |"Bb" d2 z F |"F7" F d d d | d c2 B | A B c3/2 d/ | %25
w: rose- bud that|Tex- as ev- er|knew her|eyes are bright as|dia- monds they|spark- le like the|
w: ||||||
 c2 z F/E/ |"Bb" D F F F | G F"F7" F E |"Bb" D F"Cm7" B3/2"F7" c/ |"Bb" d2 z F/F/ |"F7" F e e e | %31
w: dew you may|talk a- bout your|Clem- en- tine and|sing of Ros- a-|lee but the|yel- low rose of|
w: ||||||
 e d c3/2 B/ |"Bb" B F"F7" d3/2 c/ |1"Bb" B2 z F/D/ :|2"Bb" B3 z |] %35
w: Tex- as it the|on- ly girl for|me Where the|me.|
w: ||||

